X:1
T:Sally's Rambles  
%%composerspace
C:as lilted by Sally
M:6/8
K:Cmaj
|:"Dm"A>dd A>cc|AdA "C"cAG|"Dm"A>dd A>cc|AGA "C"c3|
"Dm"A>dd A>cc|Add cAG|"C"c>AG FGA|"Dm"GFD D2C:|
|:"Dm"A,CC FCC|DCD FCC|A,CC F2A|GFD D2C|
"Dm"A,CC FCC|DCD FCC|A,CC FGA|GFD D3:|
T:converted to standard session format:
%%vskip 0.5cm
K:Dmaj
|:FAA dAA|BAB dAA|FAA d2f|edB B2A|
FAA dAA|BAB dAA|FAA def|edB B3:|
|:f>bb f>aa|fbf afe|f>bb f>aa|fef a3|
f>bb f>aa|fbb afe|a>fe def|edB B2A:|
